;FLAVOR:Marlin
;TIME:8104
;Filament used: 4.93115m
;Layer height: 0.2
;MINX:80.837
;MINY:89.337
;MINZ:0.2
;MAXX:149.163
;MAXY:140.663
;MAXZ:20
;TARGET_MACHINE.NAME:Creality Ender-3 Pro
;Generated with Cura_SteamEngine 5.6.0
M82 ;absolute extrusion mode
; Ender 3 Custom Start G-code
G92 E0 ; Reset Extruder
G28 ; Home all axes
G1 Z5.0 F3000 ; Move Z Axis up a bit during heating to not damage bed
M104 S175 ; Start heating up the nozzle most of the way
M190 S60 ; Start heating the bed, wait until target temperature reached
M109 S215 ; Finish heating the nozzle
G1 Z2.0 F3000 ; Move Z Axis up little to prevent scratching of Heat Bed
G1 X0.1 Y20 Z0.3 F5000.0 ; Move to start position
G1 X0.1 Y200.0 Z0.3 F1500.0 E15 ; Draw the first line
G1 X0.4 Y200.0 Z0.3 F5000.0 ; Move to side a little
G1 X0.4 Y20 Z0.3 F1500.0 E30 ; Draw the second line
G92 E0 ; Reset Extruder
G1 Z2.0 F3000 ; Move Z Axis up little to prevent scratching of Heat Bed
G1 X5 Y20 Z0.3 F5000.0 ; Move over to prevent blob squish
G92 E0
G92 E0
G1 F1500 E-6.5
;LAYER_COUNT:100
;LAYER:0
M107
;MESH:level_translator_4ch_enclosure-shell.stl
G0 F6000 X146.681 Y139.398 Z0.2
;TYPE:WALL-INNER
G1 F1500 E0
G1 F1200 X147.031 Y139.291 E0.01217
G1 X147.279 Y139.158 E0.02153
G1 X147.487 Y138.987 E0.03049
G1 X147.658 Y138.779 E0.03944
G1 X147.791 Y138.531 E0.0488
G1 X147.898 Y138.181 E0.06098
G1 X147.898 Y91.819 E1.60298
G1 X147.791 Y91.469 E1.61516
G1 X147.658 Y91.221 E1.62452
G1 X147.487 Y91.013 E1.63347
G1 X147.279 Y90.842 E1.64243
G1 X147.031 Y90.709 E1.65179
G1 X146.684 Y90.603 E1.66386
G1 X83.319 Y90.602 E3.77138
G1 X82.969 Y90.709 E3.78356
G1 X82.721 Y90.842 E3.79292
G1 X82.513 Y91.013 E3.80187
G1 X82.342 Y91.221 E3.81083
G1 X82.209 Y91.469 E3.82019
G1 X82.103 Y91.816 E3.83226
G1 X82.102 Y138.181 E5.37436
G1 X82.209 Y138.531 E5.38654
G1 X82.342 Y138.779 E5.39589
G1 X82.513 Y138.987 E5.40485
G1 X82.721 Y139.158 E5.41381
G1 X82.969 Y139.291 E5.42317
G1 X83.319 Y139.398 E5.43534
G1 X146.681 Y139.398 E7.54277
G0 F6000 X146.581 Y139.798
;TYPE:WALL-OUTER
G1 F1200 X146.849 Y139.765 E7.55175
G1 X147.185 Y139.662 E7.56344
G1 X147.503 Y139.492 E7.57543
G1 X147.771 Y139.271 E7.58698
G1 X147.992 Y139.003 E7.59854
G1 X148.162 Y138.685 E7.61053
G1 X148.265 Y138.349 E7.62222
G1 X148.298 Y138.081 E7.6312
G1 X148.298 Y91.919 E9.16656
G1 X148.265 Y91.651 E9.17554
G1 X148.162 Y91.315 E9.18723
G1 X147.992 Y90.997 E9.19922
G1 X147.771 Y90.729 E9.21077
G1 X147.503 Y90.508 E9.22233
G1 X147.185 Y90.338 E9.23432
G1 X146.849 Y90.235 E9.24601
G1 X146.581 Y90.203 E9.25498
G1 X83.419 Y90.202 E11.35576
G1 X83.151 Y90.235 E11.36474
G1 X82.815 Y90.338 E11.37643
G1 X82.497 Y90.508 E11.38842
G1 X82.229 Y90.729 E11.39998
G1 X82.008 Y90.997 E11.41153
G1 X81.838 Y91.315 E11.42352
G1 X81.735 Y91.651 E11.43521
G1 X81.703 Y91.919 E11.44419
G1 X81.702 Y138.081 E12.97954
G1 X81.735 Y138.349 E12.98853
G1 X81.838 Y138.685 E13.00021
G1 X82.008 Y139.003 E13.01221
G1 X82.229 Y139.271 E13.02376
G1 X82.497 Y139.492 E13.03531
G1 X82.815 Y139.662 E13.04731
G1 X83.151 Y139.765 E13.059
G1 X83.419 Y139.798 E13.06798
G1 X146.581 Y139.798 E15.16875
G0 F6000 X146.527 Y139.038
;TYPE:SKIN
G1 F1200 X83.473 Y139.037 E17.26594
G1 X83.1 Y138.953 E17.27866
G1 X82.935 Y138.864 E17.28489
G1 X82.636 Y138.565 E17.29895
G1 X82.547 Y138.4 E17.30519
G1 X82.463 Y138.027 E17.31791
G1 X82.464 Y91.973 E18.84967
G1 X82.547 Y91.605 E18.86222
G1 X82.64 Y91.429 E18.86884
G1 X82.929 Y91.14 E18.88243
G1 X83.104 Y91.047 E18.88902
G1 X83.474 Y90.963 E18.90164
G1 X146.527 Y90.963 E20.99879
G1 X146.895 Y91.047 E21.01135
G1 X147.071 Y91.14 E21.01797
G1 X147.36 Y91.429 E21.03156
G1 X147.453 Y91.604 E21.03815
G1 X147.538 Y91.974 E21.05078
G1 X147.538 Y138.027 E22.58251
G1 X147.453 Y138.4 E22.59523
G1 X147.364 Y138.565 E22.60147
G1 X147.065 Y138.864 E22.61553
G1 X146.9 Y138.953 E22.62177
G1 X146.527 Y139.038 E22.63449
G1 F1500 E16.13449
G0 F6000 X146.598 Y139.288
G0 X147.19 Y139.023
G0 X147.523 Y138.69
G0 X147.642 Y138.468
G0 X147.737 Y138.049
G0 X147.737 Y91.951
G0 X147.642 Y91.533
G0 X147.523 Y91.309
G0 X147.254 Y91.04
G0 X146.741 Y90.746
G0 X146.629 Y91.192
G1 F1500 E22.63449
G1 F1200 X147.308 Y91.871 E22.66643
G0 F6000 X147.337 Y92.465
G1 F1200 X146.034 Y91.163 E22.7277
G0 F6000 X145.468 Y91.163
G1 F1200 X147.337 Y93.031 E22.81558
G0 F6000 X147.337 Y93.596
G1 F1200 X144.903 Y91.163 E22.93005
G0 F6000 X144.337 Y91.163
G1 F1200 X147.337 Y94.162 E23.07114
G0 F6000 X147.337 Y94.728
G1 F1200 X143.771 Y91.163 E23.23885
G0 F6000 X143.206 Y91.163
G1 F1200 X147.337 Y95.293 E23.43313
G0 F6000 X147.337 Y95.859
G1 F1200 X142.64 Y91.163 E23.65404
G0 F6000 X142.074 Y91.163
G1 F1200 X147.337 Y96.425 E23.90157
G0 F6000 X147.337 Y96.991
G1 F1200 X141.509 Y91.163 E24.1757
G0 F6000 X140.943 Y91.163
G1 F1200 X147.337 Y97.556 E24.47643
G0 F6000 X147.337 Y98.122
G1 F1200 X140.377 Y91.163 E24.80379
G0 F6000 X139.811 Y91.163
G1 F1200 X147.337 Y98.688 E25.15776
G0 F6000 X147.337 Y99.253
G1 F1200 X139.246 Y91.163 E25.53832
G0 F6000 X138.68 Y91.163
G1 F1200 X147.337 Y99.819 E25.94549
G0 F6000 X147.337 Y100.385
G1 F1200 X138.114 Y91.163 E26.37929
G0 F6000 X137.549 Y91.163
G1 F1200 X147.337 Y100.95 E26.83966
G0 F6000 X147.337 Y101.516
G1 F1200 X136.983 Y91.163 E27.32666
G0 F6000 X136.417 Y91.163
G1 F1200 X147.337 Y102.082 E27.84028
G0 F6000 X147.337 Y102.647
G1 F1200 X135.852 Y91.163 E28.38048
G0 F6000 X135.286 Y91.163
G1 F1200 X147.337 Y103.213 E28.9473
G0 F6000 X147.337 Y103.779
G1 F1200 X134.72 Y91.163 E29.54074
G0 F6000 X134.155 Y91.163
G1 F1200 X147.337 Y104.344 E30.16075
G0 F6000 X147.337 Y104.91
G1 F1200 X133.589 Y91.163 E30.80739
G0 F6000 X133.023 Y91.163
G1 F1200 X147.337 Y105.476 E31.48066
G0 F6000 X147.337 Y106.041
G1 F1200 X132.458 Y91.163 E32.1805
G0 F6000 X131.892 Y91.163
G1 F1200 X147.337 Y106.607 E32.90696
G0 F6000 X147.337 Y107.173
G1 F1200 X131.326 Y91.163 E33.66004
G0 F6000 X130.761 Y91.163
G1 F1200 X147.337 Y107.739 E34.43973
G0 F6000 X147.337 Y108.304
G1 F1200 X130.195 Y91.163 E35.24601
G0 F6000 X129.629 Y91.163
G1 F1200 X147.337 Y108.87 E36.07892
G0 F6000 X147.337 Y109.436
G1 F1200 X129.063 Y91.163 E36.93845
G0 F6000 X128.498 Y91.163
G1 F1200 X147.337 Y110.001 E37.82455
G0 F6000 X147.337 Y110.567
G1 F1200 X127.932 Y91.163 E38.73728
G0 F6000 X127.366 Y91.163
G1 F1200 X147.337 Y111.133 E39.67663
G0 F6000 X147.337 Y111.698
G1 F1200 X126.801 Y91.163 E40.64256
G0 F6000 X126.235 Y91.163
G1 F1200 X147.337 Y112.264 E41.63511
G0 F6000 X147.337 Y112.83
G1 F1200 X125.669 Y91.163 E42.65428
G0 F6000 X125.104 Y91.163
G1 F1200 X147.337 Y113.395 E43.70003
G0 F6000 X147.337 Y113.961
G1 F1200 X124.538 Y91.163 E44.7724
G0 F6000 X123.972 Y91.163
G1 F1200 X147.337 Y114.527 E45.8714
G0 F6000 X147.337 Y115.092
G1 F1200 X123.407 Y91.163 E46.99697
G0 F6000 X122.841 Y91.163
G1 F1200 X147.337 Y115.658 E48.14916
G0 F6000 X147.337 Y116.224
G1 F1200 X122.275 Y91.163 E49.32798
G0 F6000 X121.71 Y91.163
G1 F1200 X147.337 Y116.789 E50.53337
G0 F6000 X147.337 Y117.355
G1 F1200 X121.144 Y91.163 E51.76538
G0 F6000 X120.578 Y91.163
G1 F1200 X147.337 Y117.921 E53.02402
G0 F6000 X147.337 Y118.487
G1 F1200 X120.012 Y91.163 E54.30928
G0 F6000 X119.447 Y91.163
G1 F1200 X147.337 Y119.052 E55.62112
G0 F6000 X147.337 Y119.618
G1 F1200 X118.881 Y91.163 E56.95958
G0 F6000 X118.315 Y91.163
G1 F1200 X147.337 Y120.184 E58.32466
G0 F6000 X147.337 Y120.749
G1 F1200 X117.75 Y91.163 E59.71632
G0 F6000 X117.184 Y91.163
G1 F1200 X147.337 Y121.315 E61.1346
G0 F6000 X147.337 Y121.881
G1 F1200 X116.618 Y91.163 E62.5795
G0 F6000 X116.053 Y91.163
G1 F1200 X147.337 Y122.446 E64.05098
G0 F6000 X147.337 Y123.012
G1 F1200 X115.487 Y91.163 E65.54909
G0 F6000 X114.921 Y91.163
G1 F1200 X147.337 Y123.578 E67.07381
G0 F6000 X147.337 Y124.143
G1 F1200 X114.356 Y91.163 E68.62511
G0 F6000 X113.79 Y91.163
G1 F1200 X147.337 Y124.709 E70.20304
G0 F6000 X147.337 Y125.275
G1 F1200 X113.224 Y91.163 E71.80758
G0 F6000 X112.659 Y91.163
G1 F1200 X147.337 Y125.84 E73.43871
G0 F6000 X147.337 Y126.406
G1 F1200 X112.093 Y91.163 E75.09645
G0 F6000 X111.527 Y91.163
G1 F1200 X147.337 Y126.972 E76.78082
G0 F6000 X147.337 Y127.538
G1 F1200 X110.962 Y91.163 E78.49179
G0 F6000 X110.396 Y91.163
G1 F1200 X147.337 Y128.103 E80.22936
G0 F6000 X147.337 Y128.669
G1 F1200 X109.83 Y91.163 E81.99355
G0 F6000 X109.264 Y91.163
G1 F1200 X147.337 Y129.235 E83.78436
G0 F6000 X147.337 Y129.8
G1 F1200 X108.699 Y91.163 E85.60175
G0 F6000 X108.133 Y91.163
G1 F1200 X147.337 Y130.366 E87.44577
G0 F6000 X147.337 Y130.932
G1 F1200 X107.567 Y91.163 E89.3164
G0 F6000 X107.002 Y91.163
G1 F1200 X147.337 Y131.497 E91.21361
G0 F6000 X147.337 Y132.063
G1 F1200 X106.436 Y91.163 E93.13745
G0 F6000 X105.87 Y91.163
G1 F1200 X147.337 Y132.629 E95.0879
G0 F6000 X147.337 Y133.194
G1 F1200 X105.305 Y91.163 E97.06494
G0 F6000 X104.739 Y91.163
G1 F1200 X147.337 Y133.76 E99.06859
G0 F6000 X147.337 Y134.326
G1 F1200 X104.173 Y91.163 E101.09887
G0 F6000 X103.608 Y91.163
G1 F1200 X147.337 Y134.891 E103.15573
G0 F6000 X147.337 Y135.457
G1 F1200 X103.042 Y91.163 E105.2392
G0 F6000 X102.476 Y91.163
G1 F1200 X147.337 Y136.023 E107.3493
G0 F6000 X147.337 Y136.588
G1 F1200 X101.911 Y91.163 E109.48598
G0 F6000 X101.345 Y91.163
G1 F1200 X147.337 Y137.154 E111.64928
G0 F6000 X147.337 Y137.72
G1 F1200 X100.779 Y91.163 E113.8392
G0 F6000 X100.214 Y91.163
G1 F1200 X147.285 Y138.234 E116.05328
G0 F6000 X147.065 Y138.58
G1 F1200 X99.648 Y91.163 E118.28363
G0 F6000 X99.082 Y91.163
G1 F1200 X146.709 Y138.79 E120.52385
G0 F6000 X146.19 Y138.836
G1 F1200 X98.516 Y91.163 E122.76627
G0 F6000 X97.951 Y91.163
G1 F1200 X145.625 Y138.836 E125.00869
G0 F6000 X145.059 Y138.836
G1 F1200 X97.385 Y91.163 E127.2511
G0 F6000 X96.819 Y91.163
G1 F1200 X144.493 Y138.836 E129.49352
G0 F6000 X143.928 Y138.836
G1 F1200 X96.254 Y91.163 E131.73593
G0 F6000 X95.688 Y91.163
G1 F1200 X143.362 Y138.836 E133.97835
G0 F6000 X142.796 Y138.836
G1 F1200 X95.122 Y91.163 E136.22076
G0 F6000 X94.557 Y91.163
G1 F1200 X142.23 Y138.836 E138.46315
G0 F6000 X141.665 Y138.836
G1 F1200 X93.991 Y91.163 E140.70557
G0 F6000 X93.425 Y91.163
G1 F1200 X141.099 Y138.836 E142.94798
G0 F6000 X140.533 Y138.836
G1 F1200 X92.86 Y91.163 E145.19038
G0 F6000 X92.294 Y91.163
G1 F1200 X139.968 Y138.836 E147.43279
G0 F6000 X139.402 Y138.836
G1 F1200 X91.728 Y91.163 E149.67521
G0 F6000 X91.163 Y91.163
G1 F1200 X138.836 Y138.836 E151.9176
G0 F6000 X138.271 Y138.836
G1 F1200 X90.597 Y91.163 E154.16001
G0 F6000 X90.031 Y91.163
G1 F1200 X137.705 Y138.836 E156.40243
G0 F6000 X137.139 Y138.836
G1 F1200 X89.465 Y91.163 E158.64484
G0 F6000 X88.9 Y91.163
G1 F1200 X136.574 Y138.836 E160.88726
G0 F6000 X136.008 Y138.836
G1 F1200 X88.334 Y91.163 E163.12967
G0 F6000 X87.768 Y91.163
G1 F1200 X135.442 Y138.836 E165.37209
G0 F6000 X134.877 Y138.836
G1 F1200 X87.203 Y91.163 E167.61451
G0 F6000 X86.637 Y91.163
G1 F1200 X134.311 Y138.836 E169.85692
G0 F6000 X133.745 Y138.836
G1 F1200 X86.071 Y91.163 E172.09934
G0 F6000 X85.506 Y91.163
G1 F1200 X133.18 Y138.836 E174.34175
G0 F6000 X132.614 Y138.836
G1 F1200 X84.94 Y91.163 E176.58417
G0 F6000 X84.374 Y91.163
G1 F1200 X132.048 Y138.836 E178.82658
G0 F6000 X131.482 Y138.836
G1 F1200 X83.809 Y91.163 E181.06897
G0 F6000 X83.29 Y91.209
G1 F1200 X130.917 Y138.836 E183.3092
G0 F6000 X130.351 Y138.836
G1 F1200 X82.933 Y91.418 E185.5396
G0 F6000 X82.715 Y91.766
G1 F1200 X129.785 Y138.836 E187.75363
G0 F6000 X129.22 Y138.836
G1 F1200 X82.662 Y92.279 E189.94355
G0 F6000 X82.662 Y92.845
G1 F1200 X128.654 Y138.836 E192.10685
G0 F6000 X128.088 Y138.836
G1 F1200 X82.662 Y93.41 E194.24355
G0 F6000 X82.662 Y93.976
G1 F1200 X127.523 Y138.836 E196.35365
G0 F6000 X126.957 Y138.836
G1 F1200 X82.662 Y94.542 E198.43713
G0 F6000 X82.662 Y95.107
G1 F1200 X126.391 Y138.836 E200.494
G0 F6000 X125.826 Y138.836
G1 F1200 X82.662 Y95.673 E202.52428
G0 F6000 X82.662 Y96.239
G1 F1200 X125.26 Y138.836 E204.52794
G0 F6000 X124.694 Y138.836
G1 F1200 X82.662 Y96.805 E206.50497
G0 F6000 X82.662 Y97.37
G1 F1200 X124.129 Y138.836 E208.45543
G0 F6000 X123.563 Y138.836
G1 F1200 X82.662 Y97.936 E210.37926
G0 F6000 X82.662 Y98.502
G1 F1200 X122.997 Y138.836 E212.27647
G0 F6000 X122.432 Y138.836
G1 F1200 X82.662 Y99.067 E214.14711
G0 F6000 X82.662 Y99.633
G1 F1200 X121.866 Y138.836 E215.99112
G0 F6000 X121.3 Y138.836
G1 F1200 X82.662 Y100.199 E217.80851
G0 F6000 X82.662 Y100.764
G1 F1200 X120.734 Y138.836 E219.5993
G0 F6000 X120.169 Y138.836
G1 F1200 X82.662 Y101.33 E221.36349
G0 F6000 X82.662 Y101.896
G1 F1200 X119.603 Y138.836 E223.10106
G0 F6000 X119.037 Y138.836
G1 F1200 X82.662 Y102.461 E224.81203
G0 F6000 X82.662 Y103.027
G1 F1200 X118.472 Y138.836 E226.4964
G0 F6000 X117.906 Y138.836
G1 F1200 X82.662 Y103.593 E228.15414
G0 F6000 X82.662 Y104.158
G1 F1200 X117.34 Y138.836 E229.78529
G0 F6000 X116.775 Y138.836
G1 F1200 X82.662 Y104.724 E231.38984
G0 F6000 X82.662 Y105.29
G1 F1200 X116.209 Y138.836 E232.96776
G0 F6000 X115.643 Y138.836
G1 F1200 X82.662 Y105.856 E234.51906
G0 F6000 X82.662 Y106.421
G1 F1200 X115.078 Y138.836 E236.04379
G0 F6000 X114.511 Y138.836
G1 F1200 X82.662 Y106.987 E237.54187
G0 F6000 X82.662 Y107.553
G1 F1200 X113.946 Y138.836 E239.01335
G0 F6000 X113.38 Y138.836
G1 F1200 X82.662 Y108.118 E240.45823
G0 F6000 X82.662 Y108.684
G1 F1200 X112.814 Y138.836 E241.87649
G0 F6000 X112.248 Y138.836
G1 F1200 X82.662 Y109.25 E243.26812
G0 F6000 X82.662 Y109.815
G1 F1200 X111.683 Y138.836 E244.63318
G0 F6000 X111.117 Y138.836
G1 F1200 X82.662 Y110.381 E245.97162
G0 F6000 X82.662 Y110.947
G1 F1200 X110.551 Y138.836 E247.28343
G0 F6000 X109.986 Y138.836
G1 F1200 X82.662 Y111.512 E248.56867
G0 F6000 X82.662 Y112.078
G1 F1200 X109.42 Y138.836 E249.82728
G0 F6000 X108.854 Y138.836
G1 F1200 X82.662 Y112.644 E251.05927
G0 F6000 X82.662 Y113.209
G1 F1200 X108.289 Y138.836 E252.26469
G0 F6000 X107.723 Y138.836
G1 F1200 X82.662 Y113.775 E253.44348
G0 F6000 X82.662 Y114.341
G1 F1200 X107.157 Y138.836 E254.59565
G0 F6000 X106.592 Y138.836
G1 F1200 X82.662 Y114.906 E255.72124
G0 F6000 X82.662 Y115.472
G1 F1200 X106.026 Y138.836 E256.82022
G0 F6000 X105.46 Y138.836
G1 F1200 X82.662 Y116.038 E257.89256
G0 F6000 X82.662 Y116.604
G1 F1200 X104.895 Y138.836 E258.93831
G0 F6000 X104.329 Y138.836
G1 F1200 X82.662 Y117.169 E259.95746
G0 F6000 X82.662 Y117.735
G1 F1200 X103.763 Y138.836 E260.94999
G0 F6000 X103.197 Y138.836
G1 F1200 X82.662 Y118.301 E261.91589
G0 F6000 X82.662 Y118.866
G1 F1200 X102.632 Y138.836 E262.85522
G0 F6000 X102.066 Y138.836
G1 F1200 X82.662 Y119.432 E263.76792
G0 F6000 X82.662 Y119.998
G1 F1200 X101.5 Y138.836 E264.65401
G0 F6000 X100.935 Y138.836
G1 F1200 X82.662 Y120.563 E265.51351
G0 F6000 X82.662 Y121.129
G1 F1200 X100.369 Y138.836 E266.34639
G0 F6000 X99.803 Y138.836
G1 F1200 X82.662 Y121.695 E267.15265
G0 F6000 X82.662 Y122.26
G1 F1200 X99.238 Y138.836 E267.93234
G0 F6000 X98.672 Y138.836
G1 F1200 X82.662 Y122.826 E268.6854
G0 F6000 X82.662 Y123.392
G1 F1200 X98.106 Y138.836 E269.41184
G0 F6000 X97.541 Y138.836
G1 F1200 X82.662 Y123.957 E270.1117
G0 F6000 X82.662 Y124.523
G1 F1200 X96.975 Y138.836 E270.78494
G0 F6000 X96.409 Y138.836
G1 F1200 X82.662 Y125.089 E271.43156
G0 F6000 X82.662 Y125.654
G1 F1200 X95.844 Y138.836 E272.0516
G0 F6000 X95.278 Y138.836
G1 F1200 X82.662 Y126.22 E272.64502
G0 F6000 X82.662 Y126.786
G1 F1200 X94.712 Y138.836 E273.21181
G0 F6000 X94.147 Y138.836
G1 F1200 X82.662 Y127.352 E273.75201
G0 F6000 X82.662 Y127.917
G1 F1200 X93.581 Y138.836 E274.2656
G0 F6000 X93.015 Y138.836
G1 F1200 X82.662 Y128.483 E274.75258
G0 F6000 X82.662 Y129.049
G1 F1200 X92.449 Y138.836 E275.21293
G0 F6000 X91.884 Y138.836
G1 F1200 X82.662 Y129.614 E275.6467
G0 F6000 X82.662 Y130.18
G1 F1200 X91.318 Y138.836 E276.05385
G0 F6000 X90.752 Y138.836
G1 F1200 X82.662 Y130.746 E276.43438
G0 F6000 X82.662 Y131.311
G1 F1200 X90.187 Y138.836 E276.78833
G0 F6000 X89.621 Y138.836
G1 F1200 X82.662 Y131.877 E277.11566
G0 F6000 X82.662 Y132.443
G1 F1200 X89.055 Y138.836 E277.41637
G0 F6000 X88.49 Y138.836
G1 F1200 X82.662 Y133.008 E277.6905
G0 F6000 X82.662 Y133.574
G1 F1200 X87.924 Y138.836 E277.93801
G0 F6000 X87.358 Y138.836
